X:2
T:Hornpipe D'Angleterre
C:Composer : Guillaume de Morlaye (arranger)
B:2nd book of songs, galiards, padanes, bransles, almandes, in tablature for the 'Guiterne', 1553
S:pete stewart  tradtunes 2005-6-24
M:3/4
L:1/4
K:D
e>Bd | c>BA | d/c/ d/e/ f/g/ | f g/f/ e/d/ |
e>Bd | c>BA | fag | f g/f/e/d/ |
e>Bd | c>BA | d/c/ d/e/ d/e/ | d/f/ g/f/ e/d/ |
e>Bd | c>BA | d/c/ d/e/ f/g/ | a g/f/ e/d/ | e3 ||
